!!!!SEGMENT: pl-sa--l-1636--022_anonim--keyboard-piece.krn
!!!cenid: 17xx:729
!!!COM: Anonim
!!!COM-rismID: pe30004985
!!!CDT:
!!!CNT:
!!!OTL: [Keyboard piece]
!!!PDT:
!!!AGN: Secular
!!!SMS-siglum: PL-SA
!!!SMS-shelfmark: L 1636
!!!SMS-shelfwork: 022 W
!!!SMS-variant:
!!!SMS-altvar:
!!!NIFC-rismSourceID: 1001076421
!!!NIFC-islandoraID:
!!!URL-pdf-islandora:
!!!URL-scan:
!!!ONB-nifc: 7r, skan 0010, s. 5-6
!!!AIN: 1 empty
!!!key:
**kern	**kern
*part1	*part1
*staff2	*staff1
*Iempty	*Iempty
*I"[Keyboard]	*
*I'keyb	*
*clefF4	*clefC1
*k[f#c#g#]	*k[f#c#g#]
*D:	*D:
*M2/2	*M2/2
*met(c|)	*met(c|)
=1	=1
*	*^
*2\right	*2\right	*2\right
1r	8r	4B\
.	8g#/	.
.	8f#/L	4c#\
.	8e/J	.
.	8f#/L	4d\
.	16e/L	.
.	16f#/JJ	.
.	8a/L	4B\
.	16f#/L	.
.	16g#/JJ	.
=2	=2	=2
2r	4a/	4c#\
.	16g#\LL	[<4d\
.	16a\	.
.	16f#\	.
.	16g#\JJ	.
*2\right	*	*
2A\	2e/	4d\]
.	.	4c#\
=3	=3	=3
*	*	*^
8r	2a/	2d\	2f#/
8D\L	.	.	.
8F#\	.	.	.
8G#\J	.	.	.
16A\LL	2a/	4c#\	4e/
16B\	.	.	.
16A\	.	.	.
16G#\JJ	.	.	.
16F#\LL	.	4d\	4f#/
16G#\	.	.	.
16A\	.	.	.
16F#\JJ	.	.	.
=4	=4	=4	=4
16G#\LL	2g#/	4B\	4d/
16A\	.	.	.
16G#\	.	.	.
16F#\JJ	.	.	.
16E\LL	.	4c#\	4e/
16F#\	.	.	.
16G#\	.	.	.
16E\JJ	.	.	.
16F#\LL	2a/	2d\	2f#/
16G#\	.	.	.
16F#\	.	.	.
16E\JJ	.	.	.
16D\LL	.	.	.
16E\	.	.	.
16F#\	.	.	.
16D\JJ	.	.	.
*	*	*v	*v
!!LO:LB:g=original
=5	=5	=5
16G#\LL	2e/	4d\
16F#\	.	.
16G#\	.	.
16E\JJ	.	.
!LO:TX:a:t=P:problem=mixed beam	!	!
16A\LL	.	4c#\
16G#\	.	.
16A\	.	.
16AA/JJ	.	.
8D/L	16f#/LL	2ryy
.	16g#/	.
8C#/	16e/	.
.	16f#/JJ	.
8BB/	16d/LL	.
.	16e/	.
8AA/J	16c#/	.
.	16d/JJ	.
=6	=6	=6
*^	*	*
*	*2\right	*	*
2G#/	8GG#\L	[>2g#/	8B\L
.	8AA\	.	8c#\
.	8BB\	.	8d\
.	8GG#\J	.	8B\J
4r	2AA\	4g#/]	4c#\
4A/	.	4f#/	4d\
=7	=7	=7	=7
2A/	2AA/	2e/	4d\
.	.	.	4c#\
2D/	2AA 2DD/	2f# 2d/	2A/
*v	*v	*	*
*	*v	*v
!LO:TX:a:t=P:||:problem=w źródle końcowa kreska taktowa 	!LO:TX:a:t=P:||:problem=w źródle końcowa kreska taktowa 
==;	==;
*-	*-
!!!system-decoration: s1,s2
!!!RDF**kern: > = above
!!!RDF**kern: < = below
!!!EED: Antoni Szymański
!!!EEV: 2020-12-07
!!!ENC: Tomasz Grochalski
!!!END: 2020-06-11
!!!YEC: Copyright 2022 Narodowy Instytut Fryderyka Chopina (https://polishscores.org)
!!!YEM: Licence CC BY 4.0 (https://creativecommons.org/licenses/by/4.0)
